X: 40063
T: Throw The Beetle At Her
R: slip jig
M: 9/8
K: Bminor
f2B BAB g2e|f2B B2d cBA|f2B BAB g3|efg aed cde|
f2B BAB g3|f2B B2d cBA|f2B BAB g3|efg aed cBA||
d2f fef fef|d2f fef ecA|d2f fef fef|efg aed cBA|
d2f fef fef|d2f fef ecA|d2f fef fef|efg aed cBA||

